cartflows/admin-core/assets/images/plugins/wcar.svg

<svg width="40" height="40" viewBox="0 0 40 40" fill="none" xmlns="http://www.w3.org/2000/svg">
<rect width="40" height="40" rx="2" fill="#F35E33"/>
<path fill-rule="evenodd" clip-rule="evenodd" d="M28.2993 9.60799C28.4048 9.24763 28.7353 9 29.1108 9H32.1545C32.6215 9 33 9.37854 33 9.84548C33 10.3124 32.6215 10.691 32.1545 10.691H29.7443L26.1327 23.0306C26.4573 23.1412 26.758 23.3131 27.0152 23.5627C27.5472 24.0791 27.758 24.7959 27.758 25.5715C27.758 26.3455 27.5492 27.0779 27.053 27.6256C26.588 28.1388 25.9512 28.401 25.2444 28.4408C25.3391 28.7067 25.3907 28.9931 25.3907 29.2916C25.3907 30.6924 24.2551 31.828 22.8542 31.828C21.4534 31.828 20.3178 30.6924 20.3178 29.2916C20.3178 28.9951 20.3686 28.7105 20.4621 28.4461H17.4679C17.5614 28.7105 17.6122 28.9951 17.6122 29.2916C17.6122 30.6924 16.4766 31.828 15.0758 31.828C13.6749 31.828 12.5393 30.6924 12.5393 29.2916C12.5393 27.8907 13.6749 26.7551 15.0758 26.7551H25.0525C25.4531 26.7551 25.6723 26.631 25.7998 26.4903C25.9377 26.3381 26.067 26.0559 26.067 25.5715C26.067 25.0885 25.9396 24.8752 25.8376 24.7762C25.7309 24.6727 25.5108 24.5569 25.0525 24.5569H13.2109C12.5397 24.5569 11.9477 24.1171 11.7539 23.4744L9.08045 14.61C8.72036 13.416 9.61418 12.2128 10.8613 12.2128H27.5369L28.2993 9.60799ZM27.042 13.9038H24.1294L23.8572 15.7639H26.4976L27.042 13.9038ZM26.0027 17.4548H23.6097L23.3375 19.3149H25.4583L26.0027 17.4548ZM24.9634 21.0058H23.0901L22.8179 22.8659H24.419L24.9634 21.0058ZM21.1089 22.8659L21.3811 21.0058H19.4723V22.8659H21.1089ZM17.7813 22.8659V21.0058H15.9771L16.42 22.8659H17.7813ZM14.6817 22.8659L14.2389 21.0058H12.7756L13.3365 22.8659H14.6817ZM12.2656 19.3149H13.8363L13.3934 17.4548H11.7046L12.2656 19.3149ZM11.1946 15.7639H12.9908L12.5479 13.9038H10.8613C10.7479 13.9038 10.6667 14.0132 10.6994 14.1217L11.1946 15.7639ZM14.2861 13.9038L14.729 15.7639H17.7813V13.9038H14.2861ZM19.4723 13.9038V15.7639H22.1482L22.4204 13.9038H19.4723ZM21.9007 17.4548H19.4723V19.3149H21.6285L21.9007 17.4548ZM17.7813 19.3149V17.4548H15.1316L15.5745 19.3149H17.7813ZM15.0758 28.4461C14.6088 28.4461 14.2303 28.8246 14.2303 29.2916C14.2303 29.7585 14.6088 30.1371 15.0758 30.1371C15.5427 30.1371 15.9213 29.7585 15.9213 29.2916C15.9213 28.8246 15.5427 28.4461 15.0758 28.4461ZM22.8542 28.4461C22.3873 28.4461 22.0087 28.8246 22.0087 29.2916C22.0087 29.7585 22.3873 30.1371 22.8542 30.1371C23.3212 30.1371 23.6997 29.7585 23.6997 29.2916C23.6997 28.8246 23.3212 28.4461 22.8542 28.4461Z" fill="white"/>
</svg>

<svg width="40" height="40" fill="none" xmlns="http://www.w3.org/2000/svg"><rect width="40" height="40" rx="2" fill="#F35E33"/><path fill-rule="evenodd" clip-rule="evenodd" d="M28.3 9.608A.846.846 0 0 1 29.11 9h3.044a.845.845 0 1 1 0 1.691h-2.41l-3.611 12.34c.324.11.625.282.882.532.532.516.743 1.233.743 2.009 0 .774-.209 1.506-.705 2.054-.465.513-1.102.775-1.809.815a2.536 2.536 0 1 1-4.782.005h-2.994a2.536 2.536 0 1 1-2.392-1.691h9.976c.401 0 .62-.124.748-.265.138-.152.267-.434.267-.918 0-.483-.127-.697-.23-.796-.106-.103-.326-.22-.785-.22H13.211c-.671 0-1.263-.439-1.457-1.082L9.08 14.61a1.86 1.86 0 0 1 1.781-2.397h16.676l.762-2.605Zm-1.258 4.296h-2.913l-.272 1.86h2.64l.545-1.86Zm-1.04 3.55H23.61l-.273 1.86h2.121l.545-1.86Zm-1.039 3.552H23.09l-.272 1.86h1.601l.544-1.86Zm-3.854 1.86.272-1.86h-1.909v1.86h1.637Zm-3.328 0v-1.86h-1.804l.443 1.86h1.361Zm-3.1 0-.442-1.86h-1.463l.56 1.86h1.346Zm-2.415-3.551h1.57l-.443-1.86h-1.688l.56 1.86Zm-1.071-3.551h1.796l-.443-1.86H10.86a.17.17 0 0 0-.162.218l.496 1.642Zm3.091-1.86.443 1.86h3.052v-1.86h-3.495Zm5.186 0v1.86h2.676l.272-1.86h-2.948Zm2.429 3.55h-2.429v1.86h2.156l.273-1.86Zm-4.12 1.86v-1.86h-2.65l.444 1.86h2.206Zm-2.705 9.132a.845.845 0 1 0 0 1.691.845.845 0 0 0 0-1.69Zm7.778 0a.846.846 0 1 0 0 1.691.846.846 0 0 0 0-1.69Z" fill="#fff"/></svg>
